X: 20498
T: John Leary's
R: slide
M: 12/8
K: Gmajor
|:DEF|G2 e dBG F2 A E2 A|F2 A DEF G2 D DEF|
G2 e dBG F2 A E2 A|FAF DEF G3:|
|:G2 B|d2 B g2 B d2 c A2 B|cBc e2 d B2 d G2 B|
d2 B g2 B d2 c A2 g|fed cBA G3:|
|:d3|fed c2 e e2 d B2 d|ded cBA G2 A B2 d|
fed c2 e e2 d B2 d|fed cBA G3:|

